X: 100258
T: "THE PIPE SLANG" -- Reel
R: reel
B: K\"ohler's Violin Repository, v.3, 1885 p.197 #3
F: http://www.archive.org/details/klersviolinrepos03rugg
Z: 2012 John Chambers <jc:trillian.mit.edu>
M: C|
L: 1/8
K: Am
ue |\
cA A/A/A A2AB | cdef gece | fd d/d/d d2df | eE E/E/E A2A ||
uc |\
A/A/A a2 gece | f2(ed) ecAc | A/A/A a2 gece | fdec A2(Ac) |
A/A/A a2 gece | f2(ed) ecAc | GEcE GEEc | D/D/D (E^G) A3 "^D.C."|]

% newpage

%%sep 2 1 500

